X: 168
T: I Am Bringing Horses
C: Teton Sioux band 1911-1914
N: Derived from sioux163.krn
O: South Dakota, U.S.A.
N: Teton Sioux Music by Frances Densmore, 1918
Z: transcribed to **kern format by Craig Sapp
L: 1/8
M: 3/4
Q: 1/4=58
K: Bb clef=bass
%%linebreak <none>
D2D2C2 [I:setbarnb 2]| 
B,2B,4 | 
C2C3B, | 
C< B,B,3G, | 
B,< _G,F,4 ||  
[M:2/4]F,4 ||  
[M:3/4]F, D,F,4 ||  
[M:2/4]D,2D, D, ||  
[M:3/4]D,2D,4- ||  
[M:2/4]D,4 | 
G, B,-B,2 | 
B,2B,2 | 
(3D C B,-B,2 | 
B,2(B, G,) | 
B,< _G,-G,2 | 
F,2F,2 | 
F,4 ||  
[M:3/4]F,> D,F,4 ||  
[M:2/4]D,3D, | 
D,2D,2 |]  



